X:481
T:George Gubbins Delight
N:"Slow" "collected by F.O'Neill"
N:Irish title: tai.tnea.m seorsi .gobain
B:O'Neill's 481
Z:Transcribed by henrik.norbeck@mailbox.swipnet.se
M:C
L:1/8
K:Am
G/F/|EAAB c2 Ac|BcBAGB dBG.A|EAAB c2 d2|ef/g/ dB BcBA A :|
d|eaag efg.e|dBG.B ~AG E2|eaag efga|~bagb a2 ab|
c'bag efg.e|dBgd ~BG ~GF|EAAB c2 d2|ef/g/ dB ~BA A2||
